X:1
T:Тихо Над Річкою
T:Tykho na richkoiu
T:Нічка розсипала зіроньки яснії, Он вони в річці на дні. Плачуть берези по той бік – сріблистії, В темряві, наче у сні.
T:Нічка розсипала зіроньки яснії, Он вони в річці на дні. Плачуть берези по той бік – сріблистії, В темряві, наче у сні.
T:Nichka rozsypala ziron'ky iasniyi On vony v richtsi na dni. Plachut' berezy po toi byk - sriblyctiyi V temriavi, nache u sni.
T:Мелодія: Петра Батюка
T:Слова: Спиридона Черкасенка
%%score 1 2
L:1/8
Q:1/4=72
M:7/4
K:A
V:1 treble nm="Soprano" snm="S."
V:2 treble-8 nm="Tenor" snm="T."
V:1
"^Adagio - Повільно" c2 c4 Bc A2 G2 F2 | c2 c4 Bc A2 G2 F2 |[M:3/4] B2 d2 e2 | f2 e2 d2 | c6 |: %5
w: Ty- kho nad _ rich ko- iu,|ni- chen'- na _ tem- na- ia,|Spyt' za- cha-|ro- va- nyi|lis.|
w: Ти- хо над _ річ ко- ю,|ні- чень- ка _ тем- на- я,|Спить за- ча-|ро- ва- ний|ліс.|
[M:7/4] f2 f4 ef d2 c2 B2 | c2 c4 Bc A2 G2 F2 |[M:3/4] B2 c2 d2 | c2 G2 A2 | F6 |] %10
w: Nizh- no she _ po che vin|kaz- ku ta _ iem- nu- iu,|sum- no zit-|kha ver- bo-|lis.|
w: Ніж- но ше _ по- че він|каз- ку та _ єм- ну- ю,|сум- но зіт-|ха вер- бо-|ліс.|
V:2
 A2 A4 GA F2 ^E2 F2 | A2 A4 GA F2 ^E2 F2 |[M:3/4] B2 B2 c2 | d2 c2 B2 | A6 |: %5
[M:7/4] d2 d4 cd B2 A2 G2 | A2 A4 GA F2 ^E2 F2 |[M:3/4] G2 A2 B2 | A2 C2 C2 | F6 |] %10

